img/svgicons/credit-card.svg

<svg width="48" height="48" viewBox="0 0 48 48" fill="none" xmlns="http://www.w3.org/2000/svg">
<circle cx="24" cy="24" r="18" fill="#337D5A"/>
<circle cx="24" cy="24" r="24" fill="#93B474" fill-opacity="0.15"/>
<path d="M28.8125 25.7188V17.4688C28.8125 16.9001 28.3499 16.4375 27.7812 16.4375H14.0312C13.4626 16.4375 13 16.9001 13 17.4688V25.7188C13 26.2874 13.4626 26.75 14.0312 26.75H27.7812C28.3499 26.75 28.8125 26.2874 28.8125 25.7188ZM13.6875 25.7188V17.4688C13.6875 17.2792 13.8417 17.125 14.0312 17.125H27.7812C27.9708 17.125 28.125 17.2792 28.125 17.4688V25.7188C28.125 25.9083 27.9708 26.0625 27.7812 26.0625H14.0312C13.8417 26.0625 13.6875 25.9083 13.6875 25.7188Z" fill="white"/>
<path d="M33.9688 21.25H29.8438C29.6539 21.25 29.5 21.4039 29.5 21.5938C29.5 21.7836 29.6539 21.9375 29.8438 21.9375H33.9688C34.1583 21.9375 34.3125 22.0917 34.3125 22.2812V24H29.8438C29.6539 24 29.5 24.1539 29.5 24.3438C29.5 24.5336 29.6539 24.6875 29.8438 24.6875H34.3125V30.5312C34.3125 30.7208 34.1583 30.875 33.9688 30.875H20.2188C20.0292 30.875 19.875 30.7208 19.875 30.5312V27.7812C19.875 27.5914 19.7211 27.4375 19.5312 27.4375C19.3414 27.4375 19.1875 27.5914 19.1875 27.7812V30.5312C19.1875 31.0999 19.6501 31.5625 20.2188 31.5625H33.9688C34.5374 31.5625 35 31.0999 35 30.5312V22.2812C35 21.7126 34.5374 21.25 33.9688 21.25Z" fill="white"/>
<path d="M20.2188 23.6562H18.5C18.3102 23.6562 18.1562 23.8102 18.1562 24C18.1562 24.1898 18.3102 24.3438 18.5 24.3438H20.2188C20.4086 24.3438 20.5625 24.1898 20.5625 24C20.5625 23.8102 20.4086 23.6562 20.2188 23.6562Z" fill="white"/>
<path d="M17.125 23.6562H15.4062C15.2164 23.6562 15.0625 23.8102 15.0625 24C15.0625 24.1898 15.2164 24.3438 15.4062 24.3438H17.125C17.3148 24.3438 17.4688 24.1898 17.4688 24C17.4688 23.8102 17.3148 23.6562 17.125 23.6562Z" fill="white"/>
<path d="M26.4062 23.6562H24.6875C24.4977 23.6562 24.3438 23.8102 24.3438 24C24.3438 24.1898 24.4977 24.3438 24.6875 24.3438H26.4062C26.5961 24.3438 26.75 24.1898 26.75 24C26.75 23.8102 26.5961 23.6562 26.4062 23.6562Z" fill="white"/>
<path d="M23.3125 23.6562H21.5938C21.4039 23.6562 21.25 23.8102 21.25 24C21.25 24.1898 21.4039 24.3438 21.5938 24.3438H23.3125C23.5023 24.3438 23.6562 24.1898 23.6562 24C23.6562 23.8102 23.5023 23.6562 23.3125 23.6562Z" fill="white"/>
<path d="M16.7812 18.1562H15.75C15.1814 18.1562 14.7188 18.6189 14.7188 19.1875V19.5312C14.7188 20.0999 15.1814 20.5625 15.75 20.5625H16.7812C17.3499 20.5625 17.8125 20.0999 17.8125 19.5312V19.1875C17.8125 18.6189 17.3499 18.1562 16.7812 18.1562ZM17.125 19.5312C17.125 19.7208 16.9708 19.875 16.7812 19.875H15.75C15.5605 19.875 15.4062 19.7208 15.4062 19.5312V19.1875C15.4062 18.998 15.5605 18.8438 15.75 18.8438H16.7812C16.9708 18.8438 17.125 18.998 17.125 19.1875V19.5312Z" fill="white"/>
<path d="M25.7188 18.1562C25.3084 18.1562 24.9396 18.3372 24.6875 18.6232C24.4354 18.3372 24.0666 18.1562 23.6562 18.1562C22.8981 18.1562 22.2812 18.7731 22.2812 19.5312C22.2812 20.2894 22.8981 20.9062 23.6562 20.9062C24.0666 20.9062 24.4354 20.7253 24.6875 20.4393C24.9396 20.7253 25.3084 20.9062 25.7188 20.9062C26.4769 20.9062 27.0938 20.2894 27.0938 19.5312C27.0938 18.7731 26.4769 18.1562 25.7188 18.1562ZM23.6562 20.2188C23.2772 20.2188 22.9688 19.9103 22.9688 19.5312C22.9688 19.1522 23.2772 18.8438 23.6562 18.8438C24.0353 18.8438 24.3438 19.1522 24.3438 19.5312C24.3438 19.9103 24.0353 20.2188 23.6562 20.2188ZM25.7188 20.2188C25.3397 20.2188 25.0312 19.9103 25.0312 19.5312C25.0312 19.1522 25.3397 18.8438 25.7188 18.8438C26.0978 18.8438 26.4062 19.1522 26.4062 19.5312C26.4062 19.9103 26.0978 20.2188 25.7188 20.2188Z" fill="white"/>
<path d="M29.8438 23.3125H33.625C33.8148 23.3125 33.9688 23.1586 33.9688 22.9688C33.9688 22.7789 33.8148 22.625 33.625 22.625H29.8438C29.6539 22.625 29.5 22.7789 29.5 22.9688C29.5 23.1586 29.6539 23.3125 29.8438 23.3125Z" fill="white"/>
<path d="M32.5938 27.4375H26.0625C25.8727 27.4375 25.7188 27.5914 25.7188 27.7812C25.7188 27.9711 25.8727 28.125 26.0625 28.125H32.5938C32.7836 28.125 32.9375 27.9711 32.9375 27.7812C32.9375 27.5914 32.7836 27.4375 32.5938 27.4375Z" fill="white"/>
<path d="M32.5938 28.8125H28.4688C28.2789 28.8125 28.125 28.9664 28.125 29.1562C28.125 29.3461 28.2789 29.5 28.4688 29.5H32.5938C32.7836 29.5 32.9375 29.3461 32.9375 29.1562C32.9375 28.9664 32.7836 28.8125 32.5938 28.8125Z" fill="white"/>
</svg>

<svg width="48" height="48" fill="none" xmlns="http://www.w3.org/2000/svg"><circle cx="24" cy="24" r="18" fill="#337D5A"/><circle cx="24" cy="24" r="24" fill="#93B474" fill-opacity=".15"/><path d="M28.813 25.719v-8.25c0-.569-.463-1.032-1.032-1.032h-13.75c-.568 0-1.031.463-1.031 1.032v8.25c0 .568.463 1.031 1.031 1.031h13.75c.569 0 1.032-.463 1.032-1.031Zm-15.125 0v-8.25c0-.19.154-.344.343-.344h13.75c.19 0 .344.154.344.344v8.25c0 .19-.154.343-.344.343h-13.75a.344.344 0 0 1-.344-.343Z" fill="#fff"/><path d="M33.969 21.25h-4.125a.344.344 0 1 0 0 .688h4.125c.19 0 .343.154.343.343V24h-4.468a.344.344 0 1 0 0 .688h4.468v5.843c0 .19-.154.344-.343.344h-13.75a.344.344 0 0 1-.344-.344v-2.75a.344.344 0 0 0-.688 0v2.75c0 .569.463 1.032 1.032 1.032h13.75c.568 0 1.031-.463 1.031-1.032v-8.25c0-.568-.463-1.031-1.031-1.031ZM20.219 23.656H18.5a.344.344 0 0 0 0 .688h1.719a.344.344 0 0 0 0-.688ZM17.125 23.656h-1.719a.344.344 0 0 0 0 .688h1.719a.344.344 0 0 0 0-.688Z" fill="#fff"/><path d="M26.406 23.656h-1.718a.344.344 0 0 0 0 .688h1.718a.344.344 0 0 0 0-.688ZM23.313 23.656h-1.72a.344.344 0 0 0 0 .688h1.72a.344.344 0 0 0 0-.688ZM16.781 18.156H15.75c-.569 0-1.031.463-1.031 1.032v.343c0 .569.462 1.032 1.031 1.032h1.031c.569 0 1.032-.463 1.032-1.032v-.343c0-.57-.463-1.032-1.032-1.032Zm.344 1.375c0 .19-.154.344-.344.344H15.75a.344.344 0 0 1-.344-.344v-.343c0-.19.154-.344.344-.344h1.031c.19 0 .344.154.344.343v.344ZM25.719 18.156c-.41 0-.78.181-1.032.467a1.372 1.372 0 0 0-1.03-.467c-.759 0-1.376.617-1.376 1.375s.617 1.375 1.375 1.375c.41 0 .78-.18 1.032-.467.252.286.62.467 1.03.467.759 0 1.376-.617 1.376-1.375s-.617-1.375-1.375-1.375Zm-2.063 2.063a.688.688 0 1 1 .002-1.377.688.688 0 0 1-.002 1.377Zm2.063 0a.688.688 0 0 1 0-1.375.688.688 0 0 1 0 1.375ZM29.844 23.313h3.781a.344.344 0 0 0 0-.688h-3.781a.344.344 0 1 0 0 .688ZM32.594 27.438h-6.532a.344.344 0 0 0 0 .687h6.532a.344.344 0 0 0 0-.688ZM32.594 28.813h-4.125a.344.344 0 1 0 0 .687h4.125a.344.344 0 0 0 0-.688Z" fill="#fff"/></svg>
